X:32
T:Garrett Barry's
S:The Session: https://thesession.org/tunes/544#setting55354
C:Traditional
R:jig
K:G
M:6/8
L:1/8
Q:1/4=113
A|:"D" DEF GFG|"Am" AGE "C" c2 A|"D" dcA d2 e|"D" fed "C" cAG|
|"D" FEF GFG|"Am" AGE cde|"C" dcA "G" GEA|"D" DED D2 A:|
|:"D" dcA d2 e|"D" fed "Am" efe|"C" dcA c2 d|"Am" egd "C" ecA|
|"D" dcA d2 e|"D" fed "Am" efe|"C" dcA "G" GEA|1"D" DED D2 A:|2 "D" DED D3||

